X: 22060
T: Knockdhu
R: reel
M: 4/4
K: Aminor
|:"Am"A,2 ED CA,A,G,|A,CEG c2 E^F|"G"G2 BG AG E2|DEGD EDB,G,|
"Am"A,2 ED CA,A,G,|A,CEG c2 E^F|"G"G2 BG AG E2|"Em"DEGG, "Am"B,A, A,2:|
|:"Am"A2 aA gAaA|e2 ed cAAB|"G"G2 BG AG E2|[D3G,3] E GABG|
"Am"A2 aA gAaA|e2 ed cAAB|"G"G2 BG AG E2|"Em"DEGG, "Am"B,A, A,2:|

